suite-common/icons/assets/icons/biometric.svg

<svg xmlns="http://www.w3.org/2000/svg" xml:space="preserve" fill="none" viewBox="0 0 24 25">
  <path fill="#000" fill-rule="evenodd" d="M11.36 3.281a9.4 9.4 0 0 0-2.28.428c-.393.12-.482.163-.608.296a.727.727 0 0 0 .364 1.23c.139.031.233.023.459-.039 1.452-.394 1.869-.455 2.925-.424.81.023 1.204.079 1.935.272a8.26 8.26 0 0 1 4.859 3.623c.575.945.92 1.86 1.135 3.013.059.315.071.602.07 1.68-.001.731-.023 1.528-.052 1.82a30 30 0 0 1-.469 3.195 5 5 0 0 0-.098.655c0 .651.866.958 1.288.457.141-.167.175-.275.309-.968.318-1.646.459-2.874.522-4.526.057-1.516-.038-2.565-.323-3.581a9.78 9.78 0 0 0-5.518-6.353c-1.357-.593-3.011-.878-4.518-.778m-5.707 2.36c-.183.093-.902.814-1.256 1.259-.948 1.192-1.632 2.638-1.93 4.08-.13.63-.179 1.098-.225 2.14-.057 1.283-.205 2.006-.62 3.03-.201.496-.22.663-.105.915a.68.68 0 0 0 .581.407c.542.044.739-.194 1.144-1.379.311-.911.456-1.78.498-2.973.053-1.538.272-2.521.816-3.66.432-.902.857-1.504 1.63-2.303.288-.298.503-.554.521-.622.087-.33-.03-.673-.293-.853a.81.81 0 0 0-.761-.041m5.481 2.182a5.8 5.8 0 0 0-2.283.976 5.45 5.45 0 0 0-1.543 1.861c-.38.752-.501 1.286-.55 2.42-.045 1.04-.067 1.304-.163 1.92a12.9 12.9 0 0 1-1.301 3.91c-.212.406-.222.437-.207.673.013.196.04.279.13.397a.765.765 0 0 0 1.019.168c.131-.088.205-.2.456-.696.595-1.178.972-2.216 1.223-3.372.202-.927.274-1.543.325-2.78.05-1.198.183-1.691.642-2.377.522-.78 1.275-1.312 2.222-1.569.404-.11 1.249-.123 1.677-.026q1.058.241 1.859 1.012c.368.355.439.393.731.393.414 0 .709-.3.709-.72 0-.286-.045-.382-.31-.662a5.3 5.3 0 0 0-2.33-1.397c-.662-.192-1.621-.246-2.306-.131m.671 4.456a.73.73 0 0 0-.527.544c-.02.086-.037.364-.037.617-.002.919-.167 2.222-.427 3.375-.16.71-.16.862.005 1.111.266.401.899.414 1.196.024.165-.217.427-1.396.583-2.627.079-.624.18-2.299.145-2.411a2 2 0 0 1-.04-.159c-.029-.133-.198-.338-.338-.41a.95.95 0 0 0-.56-.064m4.535-.002c-.178.043-.275.104-.413.261-.152.173-.153.18-.206 1.387-.109 2.481-.533 4.533-1.426 6.904-.236.626-.26.807-.137 1.048.158.308.412.435.789.392.335-.037.478-.205.732-.858.846-2.176 1.353-4.487 1.519-6.922.054-.787.054-1.613-.001-1.756-.121-.322-.524-.536-.857-.456m-6.28 7.549c-.227.12-.305.233-.682.99-.4.803-.428.907-.316 1.175.205.491.832.633 1.195.269.071-.07.289-.441.484-.824.331-.647.356-.713.358-.939.001-.198-.019-.273-.106-.405-.193-.291-.642-.419-.933-.266"/>
</svg>

<svg xmlns="http://www.w3.org/2000/svg" xml:space="preserve" fill="none" viewBox="0 0 24 25"><path d="M11.360 3.281 C 10.554 3.335,9.896 3.458,9.080 3.709 C 8.687 3.829,8.598 3.872,8.472 4.005 C 8.063 4.432,8.262 5.106,8.836 5.235 C 8.975 5.266,9.069 5.258,9.295 5.196 C 10.747 4.802,11.164 4.741,12.220 4.772 C 13.030 4.795,13.424 4.851,14.155 5.044 C 16.142 5.568,17.946 6.913,19.014 8.667 C 19.589 9.612,19.934 10.527,20.149 11.680 C 20.208 11.995,20.220 12.282,20.219 13.360 C 20.218 14.091,20.196 14.888,20.167 15.180 C 20.054 16.356,19.903 17.379,19.698 18.375 C 19.644 18.637,19.600 18.931,19.600 19.030 C 19.600 19.681,20.466 19.988,20.888 19.487 C 21.029 19.320,21.063 19.212,21.197 18.519 C 21.515 16.873,21.656 15.645,21.719 13.993 C 21.776 12.477,21.681 11.428,21.396 10.412 C 20.593 7.554,18.587 5.244,15.878 4.059 C 14.521 3.466,12.867 3.181,11.360 3.281 M5.653 5.641 C 5.470 5.734,4.751 6.455,4.397 6.900 C 3.449 8.092,2.765 9.538,2.467 10.980 C 2.337 11.610,2.288 12.078,2.242 13.120 C 2.185 14.403,2.037 15.126,1.622 16.150 C 1.421 16.646,1.402 16.813,1.517 17.065 C 1.624 17.301,1.836 17.450,2.098 17.472 C 2.640 17.516,2.837 17.278,3.242 16.093 C 3.553 15.182,3.698 14.313,3.740 13.120 C 3.793 11.582,4.012 10.599,4.556 9.460 C 4.988 8.558,5.413 7.956,6.186 7.157 C 6.474 6.859,6.689 6.603,6.707 6.535 C 6.794 6.205,6.677 5.862,6.414 5.682 C 6.213 5.544,5.878 5.526,5.653 5.641 M11.134 7.823 C 10.380 7.950,9.469 8.339,8.851 8.799 C 8.237 9.256,7.673 9.936,7.308 10.660 C 6.928 11.412,6.807 11.946,6.758 13.080 C 6.713 14.120,6.691 14.384,6.595 15.000 C 6.391 16.315,5.937 17.678,5.294 18.910 C 5.082 19.316,5.072 19.347,5.087 19.583 C 5.100 19.779,5.127 19.862,5.217 19.980 C 5.454 20.290,5.908 20.365,6.236 20.148 C 6.367 20.060,6.441 19.948,6.692 19.452 C 7.287 18.274,7.664 17.236,7.915 16.080 C 8.117 15.153,8.189 14.537,8.240 13.300 C 8.290 12.102,8.423 11.609,8.882 10.923 C 9.404 10.143,10.157 9.611,11.104 9.354 C 11.508 9.244,12.353 9.231,12.781 9.328 C 13.485 9.488,14.107 9.827,14.640 10.340 C 15.008 10.695,15.079 10.733,15.371 10.733 C 15.785 10.733,16.080 10.433,16.080 10.013 C 16.080 9.727,16.035 9.631,15.770 9.351 C 15.161 8.710,14.329 8.211,13.440 7.954 C 12.778 7.762,11.819 7.708,11.134 7.823 M11.805 12.279 C 11.548 12.341,11.340 12.556,11.278 12.823 C 11.258 12.909,11.241 13.187,11.241 13.440 C 11.239 14.359,11.074 15.662,10.814 16.815 C 10.654 17.525,10.654 17.677,10.819 17.926 C 11.085 18.327,11.718 18.340,12.015 17.950 C 12.180 17.733,12.442 16.554,12.598 15.323 C 12.677 14.699,12.778 13.024,12.743 12.912 C 12.734 12.884,12.716 12.812,12.703 12.753 C 12.674 12.620,12.505 12.415,12.365 12.343 C 12.220 12.269,11.967 12.240,11.805 12.279 M16.340 12.277 C 16.162 12.320,16.065 12.381,15.927 12.538 C 15.775 12.711,15.774 12.718,15.721 13.925 C 15.612 16.406,15.188 18.458,14.295 20.829 C 14.059 21.455,14.035 21.636,14.158 21.877 C 14.316 22.185,14.570 22.312,14.947 22.269 C 15.282 22.232,15.425 22.064,15.679 21.411 C 16.525 19.235,17.032 16.924,17.198 14.489 C 17.252 13.702,17.252 12.876,17.197 12.733 C 17.076 12.411,16.673 12.197,16.340 12.277 M10.060 19.826 C 9.833 19.946,9.755 20.059,9.378 20.816 C 8.978 21.619,8.950 21.723,9.062 21.991 C 9.267 22.482,9.894 22.624,10.257 22.260 C 10.328 22.190,10.546 21.819,10.741 21.436 C 11.072 20.789,11.097 20.723,11.099 20.497 C 11.100 20.299,11.080 20.224,10.993 20.092 C 10.800 19.801,10.351 19.673,10.060 19.826 " stroke="none" fill-rule="evenodd" fill="black"></path></svg>
